X:489
T: "Der Versucher"
N: Z1169
O: Europa, Mitteleuropa, Deutschland, Franken
R: Liebes - Lied, Jaeger - Lied
M: 3/4
L: 1/8
K: G
D2 | G2G2A2 | Bcd2
e2 | d2B2AB | G4
D2 | G2G2A2 | Bcd2
e2 | d2B2AB | G4
Bc | d2B2e2 | dcA2
A2 | B3AGB | A4
D2 | G2G2A2 | Bcd2
e2 | d2B2AB | G4

